X: 193
T:Domine exaudi orationem meam auribus / Memor fui dierum antiquorum / Spiritus tuus bonus
N: Derived from Jos1605-Domine_exaudi_orationem_meam.krn
C: Josquin des Prez
%%abc-version 2.0
%%abcx-abcm2ps-target-version 5.9.1 (29 Sep 2008)
%%abc-creator hum2abc beta
%%abcx-conversion-date 2019/02/12 16:15:47
%%abc-edited-by Jesse Rodin
%%abc-edited-by Jesse Rodin; Victoria Chang 2011/05/20
%%abcx-initial-encoding-date 2011/05/20/
%%humdrum-veritas 1463914886
%%humdrum-veritas-data 2522578887
%%linebreak <none>
%%barnumbers 0
L: 1/4
M: 2/1
Q: 1/2=120
%%staves [1 2 3 4]
V: 1 clef=treble
V: 2 clef=treble-8
V: 3 clef=treble-8
V: 4 clef=bass
K: C
[V:1] B6B2 | 
[V:2] z8 | 
[V:3] z8 | 
[V:4] z8 | 
[V:1] B4A4 | 
[V:2] z8 | 
[V:3] z8 | 
[V:4] z8 | 
[V:1] c8 | 
[V:2] e6e2 | 
[V:3] z8 | 
[V:4] z8 | 
[V:1] B8 | 
[V:2] e4d4 | 
[V:3] z8 | 
[V:4] z8 | 
[V:1] z4A4 | 
[V:2] f8 | 
[V:3] z8 | 
[V:4] z8 | 
[V:1] c4c4 | 
[V:2] e8 | 
[V:3] z8 | 
[V:4] z8 | 
[V:1] B2A2A4- | 
[V:2] z4d4 | 
[V:3] z8 | 
[V:4] z8 | 
[V:1] A4d4 | 
[V:2] f4f4 | 
[V:3] z8 | 
[V:4] z8 | 
[V:1] c2B4AG | 
[V:2] e2d2d4- | 
[V:3] z8 | 
[V:4] z8 | 
[V:1] A2B2E4 | 
[V:2] d4g4 | 
[V:3] z8 | 
[V:4] z8 | 
[V:1] z4B4 | 
[V:2] f2e4dc | 
[V:3] z8 | 
[V:4] z8 | 
[V:1] B4A2c2- | 
[V:2] d2e2A4 | 
[V:3] z8 | 
[V:4] z8 | 
[V:1] c2B2B4 | 
[V:2] z4e4 | 
[V:3] z8 | 
[V:4] z8 | 
[V:1] z2c2B2A2- | 
[V:2] e4d2f2- | 
[V:3] z8 | 
[V:4] z8 | 
[V:1] A2G2c3B | 
[V:2] f2e2e4 | 
[V:3] z8 | 
[V:4] z8 | 
[V:1] AGA2G2F2 | 
[V:2] z2f2e2d2- | 
[V:3] z8 | 
[V:4] z8 | 
[V:1] E4D4 | 
[V:2] d2c2f3e | 
[V:3] z8 | 
[V:4] z8 | 
[V:1] z4z2D2 | 
[V:2] dcd2c2B2 | 
[V:3] z8 | 
[V:4] z8 | 
[V:1] E2F2G2D2 | 
[V:2] A4G4 | 
[V:3] z8 | 
[V:4] z8 | 
[V:1] E2F4E2 | 
[V:2] z4z2G2 | 
[V:3] z8 | 
[V:4] z8 | 
[V:1] F3GE4 | 
[V:2] A2B2c2A2 | 
[V:3] z8 | 
[V:4] z8 | 
[V:1] G8 | 
[V:2] B2c4B2 | 
[V:3] e8 | 
[V:4] E,8 | 
[V:1] G4G4 | 
[V:2] c3dB4 | 
[V:3] e4e4 | 
[V:4] E,4E,4 | 
[V:1] A2c3BAG | 
[V:2] A8- | 
[V:3] e8 | 
[V:4] A,,8 | 
[V:1] F8 | 
[V:2] A8 | 
[V:3] d6d2 | 
[V:4] D,4D,4 | 
[V:1] A6A2 | 
[V:2] z2A2c2d2 | 
[V:3] c4A4 | 
[V:4] F,4F,4 | 
[V:1] G6E2 | 
[V:2] e8 | 
[V:3] B8 | 
[V:4] E,8- | 
[V:1] E6D2 | 
[V:2] c4c2B2- | 
[V:3] z4E4 | 
[V:4] E,8 | 
[V:1] C3DB,4 | 
[V:2] B2A4^G2 | 
[V:3] E4E4 | 
[V:4] z8 | 
[V:1] A,8 | 
[V:2] A4c4 | 
[V:3] F8 | 
[V:4] z4A,,4 | 
[V:1] z8 | 
[V:2] c6BA | 
[V:3] E8 | 
[V:4] A,,4A,,4 | 
[V:1] z4D4 | 
[V:2] G2A4^G2 | 
[V:3] z4B4 | 
[V:4] B,,8 | 
[V:1] C2E4F2 | 
[V:2] A4z4 | 
[V:3] c4A4 | 
[V:4] A,,8 | 
[V:1] G4G2F2- | 
[V:2] z8 | 
[V:3] B2c3BA2- | 
[V:4] z8 | 
[V:1] FEE4D2 | 
[V:2] z4A4 | 
[V:3] A2G2F4 | 
[V:4] z8 | 
[V:1] E8 | 
[V:2] c4B4 | 
[V:3] E8 | 
[V:4] z8 | 
[V:1] D4D2G2- | 
[V:2] B2B4B2 | 
[V:3] G4G4 | 
[V:4] z8 | 
[V:1] G2FED2G2 | 
[V:2] B4B4 | 
[V:3] G4G4 | 
[V:4] z8 | 
[V:1] F2E4DC | 
[V:2] c8 | 
[V:3] A8 | 
[V:4] z8 | 
[V:1] B,8 | 
[V:2] z8 | 
[V:3] G8 | 
[V:4] z4E,4 | 
[V:1] z8 | 
[V:2] z8 | 
[V:3] A4B4 | 
[V:4] F,4D,4 | 
[V:1] z8 | 
[V:2] z8 | 
[V:3] c3BAGF2- | 
[V:4] E,2F,3E,D,2- | 
[V:1] z2A,4^G,2 | 
[V:2] A4B4 | 
[V:3] F2E4D2 | 
[V:4] D,2C,2B,,4 | 
[V:1] A,4C4- | 
[V:2] c6d2 | 
[V:3] E8- | 
[V:4] A,,8 | 
[V:1] C2D2E2F2 | 
[V:2] e2f2g4 | 
[V:3] E8 | 
[V:4] C,4C,4 | 
[V:1] G4E2G2 | 
[V:2] c6B2 | 
[V:3] z8 | 
[V:4] C,4C,4 | 
[V:1] F2E4D2 | 
[V:2] A2G2F4 | 
[V:3] z8 | 
[V:4] D,8 | 
[V:1] E8 | 
[V:2] E8 | 
[V:3] z2G4G2 | 
[V:4] C,4z2C,2- | 
[V:1] z4z2G2- | 
[V:2] z8 | 
[V:3] G2G2A2G2 | 
[V:4] C,D,E,2F,2E,2 | 
[V:1] G2G2G2G2 | 
[V:2] z2e4d2 | 
[V:3] c4z2B2 | 
[V:4] C,4z4 | 
[V:1] A2G2c4 | 
[V:2] e2d2e3f | 
[V:3] c2B2A4 | 
[V:4] z8 | 
[V:1] z2B2c2B2 | 
[V:2] d4f3e | 
[V:3] z2G2A2G2 | 
[V:4] z8 | 
[V:1] A2c2B2A2 | 
[V:2] f2e2d2f2- | 
[V:3] A4D4 | 
[V:4] z8 | 
[V:1] G4A4 | 
[V:2] fee4d2 | 
[V:3] E4F4 | 
[V:4] z8 | 
[V:1] G8 | 
[V:2] e4z2c2 | 
[V:3] E8- | 
[V:4] z2C,2C,2C,2 | 
[V:1] z8 | 
[V:2] c2c2c4 | 
[V:3] E8 | 
[V:4] C,4A,,2E,2 | 
[V:1] z4z2G2 | 
[V:2] B8 | 
[V:3] z2G2G2G2 | 
[V:4] E,2E,2E,4 | 
[V:1] G2G2G4 | 
[V:2] z4z2g2 | 
[V:3] G4E2B2 | 
[V:4] C,2G,2G,2G,2 | 
[V:1] E2B2B2B2 | 
[V:2] g2g2g4- | 
[V:3] B2B2B4 | 
[V:4] G,4E,4- | 
[V:1] B4G2G2 | 
[V:2] g4e3d | 
[V:3] G2G2c4 | 
[V:4] E,4z2C,2- | 
[V:1] c4A4 | 
[V:2] cBA4f2- | 
[V:3] A4d3c | 
[V:4] C,2F,4D,2- | 
[V:1] d3cBAB2- | 
[V:2] f2d2e4 | 
[V:3] BAB2G4 | 
[V:4] D,2G,4E,2 | 
[V:1] BAA4^G2 | 
[V:2] c2d2e4 | 
[V:3] A4B4 | 
[V:4] F,4E,4 | 
[V:1] A8 | 
[V:2] e8 | 
[V:3] A8 | 
[V:4] z4z2A,2- | 
[V:1] z8 | 
[V:2] z2e4d2 | 
[V:3] z8 | 
[V:4] A,2G,2A,2F,2 | 
[V:1] z8 | 
[V:2] e2c2B2d2- | 
[V:3] z8 | 
[V:4] E,2A,2G,2F,2 | 
[V:1] z8 | 
[V:2] d2c2d2B2 | 
[V:3] z8 | 
[V:4] E,4D,4 | 
[V:1] z8 | 
[V:2] A4z2e2- | 
[V:3] z8 | 
[V:4] z2A,4G,2 | 
[V:1] z8 | 
[V:2] e2d2e2c2 | 
[V:3] z8 | 
[V:4] A,2F,2E,2A,2 | 
[V:1] D4E4 | 
[V:2] B2d4^c2 | 
[V:3] z8 | 
[V:4] G,2F,2E,4 | 
[V:1] F6D2 | 
[V:2] d8 | 
[V:3] A4B4 | 
[V:4] D,8 | 
[V:1] E6C2 | 
[V:2] z8 | 
[V:3] c6A2 | 
[V:4] z8 | 
[V:1] D4E4- | 
[V:2] z8 | 
[V:3] B4z2G2 | 
[V:4] z8 | 
[V:1] E2C2D4 | 
[V:2] z8 | 
[V:3] A4B4 | 
[V:4] z8 | 
[V:1] E4F4- | 
[V:2] z8 | 
[V:3] z2G2A4 | 
[V:4] z8 | 
[V:1] F2EDE4 | 
[V:2] z8 | 
[V:3] B4c4- | 
[V:4] z8 | 
[V:1] D8 | 
[V:2] z4G4 | 
[V:3] c2BAB4 | 
[V:4] z4G,,4 | 
[V:1] z4D4 | 
[V:2] B4B4 | 
[V:3] G8 | 
[V:4] G,,4G,,4 | 
[V:1] D4D4 | 
[V:2] B4B4 | 
[V:3] z4G4 | 
[V:4] G,,4G,,4 | 
[V:1] E6D2 | 
[V:2] c8 | 
[V:3] G4G4 | 
[V:4] C,8 | 
[V:1] C4B,4 | 
[V:2] z8 | 
[V:3] A6G2 | 
[V:4] z8 | 
[V:1] A,2D4^C2 | 
[V:2] z8 | 
[V:3] F4E4 | 
[V:4] z8 | 
[V:1] D8 | 
[V:2] z4B4 | 
[V:3] D8- | 
[V:4] z4G,,4 | 
[V:1] z4D4 | 
[V:2] B4B4 | 
[V:3] D8 | 
[V:4] G,,4G,,4 | 
[V:1] D4D4 | 
[V:2] B4B4 | 
[V:3] G4G4- | 
[V:4] G,,4G,,4 | 
[V:1] E3DC2B,2 | 
[V:2] c6d2 | 
[V:3] G2F2E2D2 | 
[V:4] C,8 | 
[V:1] A,4z4 | 
[V:2] e2d4^c2 | 
[V:3] C2D2E4 | 
[V:4] z8 | 
[V:1] z4F4 | 
[V:2] d6cB | 
[V:3] D8 | 
[V:4] z4D,4 | 
[V:1] F4F4 | 
[V:2] AGB2A4 | 
[V:3] z8 | 
[V:4] D,4D,4 | 
[V:1] G6F2 | 
[V:2] G4E2F2 | 
[V:3] z4G4 | 
[V:4] E,6D,2 | 
[V:1] E4D4 | 
[V:2] G3AB4 | 
[V:3] G4G4 | 
[V:4] C,4B,,4 | 
[V:1] C4c4 | 
[V:2] c4A2B2 | 
[V:3] A6G2 | 
[V:4] A,,8- | 
[V:1] c4c4 | 
[V:2] c3de4 | 
[V:3] F4E4 | 
[V:4] A,,8 | 
[V:1] d6c2 | 
[V:2] f8 | 
[V:3] D8 | 
[V:4] z4D,4 | 
[V:1] B4A4 | 
[V:2] z2e4d2 | 
[V:3] G4A4 | 
[V:4] E,4F,4 | 
[V:1] G8 | 
[V:2] e8 | 
[V:3] B3AB2c2- | 
[V:4] E,8 | 
[V:1] A4B3A | 
[V:2] c2c2d3c | 
[V:3] c2BAG4- | 
[V:4] A,4G,4- | 
[V:1] B2c4BA | 
[V:2] d2e4d2 | 
[V:3] G4A4 | 
[V:4] G,2F,E,F,4 | 
[V:1] G8 ||  
[V:2] e8 ||  
[V:3] B8 ||  
[V:4] E,8 ||  
[V:1] [M:2/1]G8 | 
[V:2] [M:2/1]e4e4 | 
[V:3] [M:2/1]c8 | 
[V:4] [M:2/1]C,8 | 
[V:1] G4G4 | 
[V:2] e8 | 
[V:3] c8 | 
[V:4] C,8 | 
[V:1] A6G2 | 
[V:2] f6c2 | 
[V:3] c4A4 | 
[V:4] F,8 | 
[V:1] F3ED2C2 | 
[V:2] d3cB2A2 | 
[V:3] z4z2A2 | 
[V:4] D,8 | 
[V:1] B,2A,2B,4 | 
[V:2] d4z4 | 
[V:3] G2F2E2D2 | 
[V:4] z8 | 
[V:1] C6B,A, | 
[V:2] z8 | 
[V:3] E4F4 | 
[V:4] z8 | 
[V:1] B,8- | 
[V:2] d8 | 
[V:3] G8 | 
[V:4] G,,8 | 
[V:1] B,8 | 
[V:2] d4d4 | 
[V:3] z4G4- | 
[V:4] G,,8 | 
[V:1] z8 | 
[V:2] e6d2 | 
[V:3] G4G4 | 
[V:4] C,8 | 
[V:1] z8 | 
[V:2] c2B2A2G2 | 
[V:3] A3GF2E2 | 
[V:4] A,,8 | 
[V:1] z8 | 
[V:2] F2E2F4 | 
[V:3] D2C2D4 | 
[V:4] z4z2D,2 | 
[V:1] z2D2C2B,2 | 
[V:2] G4A2B2 | 
[V:3] z8 | 
[V:4] C,2B,,2A,,2G,,2 | 
[V:1] A,4D4 | 
[V:2] c4B4 | 
[V:3] z2A2G2F2 | 
[V:4] A,,4B,,4 | 
[V:1] C2E3DC2 | 
[V:2] G4z4 | 
[V:3] E2c3BA2 | 
[V:4] C,8 | 
[V:1] B,2A,2B,2D2- | 
[V:2] z8 | 
[V:3] G2F2E2D2 | 
[V:4] z8 | 
[V:1] D2^C2D4- | 
[V:2] z8 | 
[V:3] A6B2- | 
[V:4] z4D,4- | 
[V:1] D4z4 | 
[V:2] z2d3ef2 | 
[V:3] B2AGA4 | 
[V:4] D,4D,4 | 
[V:1] z2G4G2 | 
[V:2] g3fe2d2 | 
[V:3] G8 | 
[V:4] E,3D,C,2B,,2 | 
[V:1] A2B2c4 | 
[V:2] c2B2A4 | 
[V:3] z8 | 
[V:4] A,,2G,,2A,,4 | 
[V:1] B8 | 
[V:2] G4z4 | 
[V:3] z2G4G2 | 
[V:4] z2E,4E,2 | 
[V:1] z8 | 
[V:2] z8 | 
[V:3] A2B2c2c2 | 
[V:4] F,2D,2E,2F,2 | 
[V:1] z2G4G2 | 
[V:2] z2d4e2 | 
[V:3] B8 | 
[V:4] G,8 | 
[V:1] A2B2c2c2 | 
[V:2] f2d2e2f2 | 
[V:3] z8 | 
[V:4] z8 | 
[V:1] B8 | 
[V:2] g8 | 
[V:3] z2G4G2 | 
[V:4] z2E,4E,2 | 
[V:1] z8 | 
[V:2] z8 | 
[V:3] A2B2c4 | 
[V:4] F,2D,2E,2F,2 | 
[V:1] z2G4G2 | 
[V:2] z2d4e2 | 
[V:3] B8 | 
[V:4] G,8 | 
[V:1] A2B2c4 | 
[V:2] f2d2e2f2 | 
[V:3] z8 | 
[V:4] z8 | 
[V:1] B8 | 
[V:2] g4z2g2- | 
[V:3] z2d4d2 | 
[V:4] z2G,4G,2 | 
[V:1] z2d4d2 | 
[V:2] g2g2f2d2 | 
[V:3] B3cd2G2 | 
[V:4] G,4D,2G,2- | 
[V:1] B3cd2G2- | 
[V:2] g4f2e2- | 
[V:3] d4B2c2- | 
[V:4] G,2F,E,D,2C,D, | 
[V:1] GABcB2A2- | 
[V:2] e2dcd4 | 
[V:3] c2B2G2A2 | 
[V:4] E,F,G,4F,2 | 
[V:1] A2G4^F2 | 
[V:2] G4d4- | 
[V:3] B2c2A4 | 
[V:4] E,4D,4 | 
[V:1] G8 | 
[V:2] d2e2d2e2- | 
[V:3] G8- | 
[V:4] G,,3A,,B,,2C,2- | 
[V:1] z4D4 | 
[V:2] e2dcB4 | 
[V:3] G8 | 
[V:4] C,D,E,F,G,3G,, | 
[V:1] D4D4 | 
[V:2] B8- | 
[V:3] z4G4 | 
[V:4] G,,8- | 
[V:1] D4D4 | 
[V:2] B8 | 
[V:3] G4G4 | 
[V:4] G,,8 | 
[V:1] E4D2E2- | 
[V:2] z8 | 
[V:3] G4G4 | 
[V:4] z8 | 
[V:1] E2DCB,2C2 | 
[V:2] z8 | 
[V:3] A4G2A2- | 
[V:4] z8 | 
[V:1] A,2B,2C4 | 
[V:2] z8 | 
[V:3] A2GFE2F2 | 
[V:4] z8 | 
[V:1] z2C4D2 | 
[V:2] z8 | 
[V:3] D2E2F4 | 
[V:4] z8 | 
[V:1] B,2C2A,2B,2 | 
[V:2] z8 | 
[V:3] z2F4G2 | 
[V:4] z8 | 
[V:1] C2A,2B,2C2- | 
[V:2] z8 | 
[V:3] E2F2D2E2 | 
[V:4] z8 | 
[V:1] C2D2C4 | 
[V:2] z8 | 
[V:3] F2D2E2F2- | 
[V:4] z8 | 
[V:1] D4D4 | 
[V:2] z8 | 
[V:3] F2G2F4 | 
[V:4] z8 | 
[V:1] E3DEFG2- | 
[V:2] z8 | 
[V:3] G4G4 | 
[V:4] z8 | 
[V:1] G2F2E4 | 
[V:2] z8 | 
[V:3] A3GABc2- | 
[V:4] z8 | 
[V:1] D4z4 | 
[V:2] z2G2E2F2 | 
[V:3] c2B2A4 | 
[V:4] z2G,,2C,2D,2 | 
[V:1] G4G4 | 
[V:2] G2c4B2 | 
[V:3] G8 | 
[V:4] E,2C,D,E,F,G,2 | 
[V:1] A3GABc2- | 
[V:2] c4c4 | 
[V:3] z8 | 
[V:4] F,6E,2 | 
[V:1] c2B2A2d2- | 
[V:2] d3cdef2- | 
[V:3] z8 | 
[V:4] F,2G,2F,2D,2- | 
[V:1] d2c4B2 | 
[V:2] f2e2d4 | 
[V:3] z4d4 | 
[V:4] D,2E,2F,2G,2 | 
[V:1] c8 | 
[V:2] c8 | 
[V:3] e6c2 | 
[V:4] E,4A,4- | 
[V:1] z4A4 | 
[V:2] z2f2f2f2 | 
[V:3] c2c2d4- | 
[V:4] A,2F,2F,2F,2 | 
[V:1] B6G2 | 
[V:2] d4d2e2- | 
[V:3] d2B2B4 | 
[V:4] G,6G,2 | 
[V:1] G2G2A3B | 
[V:2] e2e2c4 | 
[V:3] c6A2 | 
[V:4] E,4F,4- | 
[V:1] c2d3cBA | 
[V:2] z2f3edc | 
[V:3] A4z4 | 
[V:4] F,2D,2D,4 | 
[V:1] B2B2A2B2 | 
[V:2] BAG2z2g2 | 
[V:3] z2d2d2d2 | 
[V:4] z4z2G,2- | 
[V:1] G2G2c4- | 
[V:2] g2g2e4 | 
[V:3] e6c2 | 
[V:4] G,2G,2A,4- | 
[V:1] c2A2A4 | 
[V:2] e2f4f2 | 
[V:3] c4d4- | 
[V:4] A,2F,2F,4 | 
[V:1] B6G2 | 
[V:2] d4z2e2 | 
[V:3] d2B2B4 | 
[V:4] G,6E,2 | 
[V:1] G4A3B | 
[V:2] e2e2c4 | 
[V:3] c6A2 | 
[V:4] E,4F,4- | 
[V:1] c2d3cBA | 
[V:2] c2f3ed2 | 
[V:3] A4z4 | 
[V:4] F,2D,2D,4 | 
[V:1] B2A4^G2 | 
[V:2] d2c2B4 | 
[V:3] z8 | 
[V:4] z8 | 
[V:1] A8- | 
[V:2] A2f4e2 | 
[V:3] z2A3Bc2 | 
[V:4] z2D,4C,2 | 
[V:1] A8- | 
[V:2] f4e4 | 
[V:3] A2d4^c2 | 
[V:4] D,4A,4 | 
[V:1] A8 | 
[V:2] z2f4f2 | 
[V:3] d8 | 
[V:4] z2D,4D,2 | 
[V:1] z8 | 
[V:2] e3dd2^c2 | 
[V:3] c3BA2G2 | 
[V:4] A,3G,F,2E,2 | 
[V:1] z4z2D2 | 
[V:2] d6cB | 
[V:3] A8 | 
[V:4] D,8- | 
[V:1] F3FF2F2 | 
[V:2] A8- | 
[V:3] z4z2A2 | 
[V:4] D,8 | 
[V:1] E4A4- | 
[V:2] A8 | 
[V:3] c3cc2c2 | 
[V:4] A,,8 | 
[V:1] A2G2F4- | 
[V:2] z8 | 
[V:3] B4d4- | 
[V:4] z8 | 
[V:1] F2E2D2C2 | 
[V:2] z8 | 
[V:3] d2c2B2A2 | 
[V:4] z8 | 
[V:1] B,2A,2B,4 | 
[V:2] z8 | 
[V:3] G2F2E2D2 | 
[V:4] z4z2D,2 | 
[V:1] A,4z4 | 
[V:2] c6d2 | 
[V:3] A8 | 
[V:4] F,3F,F,2F,2 | 
[V:1] z8 | 
[V:2] e6d2 | 
[V:3] z8 | 
[V:4] E,4A,4- | 
[V:1] c4c4 | 
[V:2] c2B2A2G2 | 
[V:3] z8 | 
[V:4] A,2G,2F,2E,2 | 
[V:1] d6c2 | 
[V:2] F2E2D4 | 
[V:3] z4d4 | 
[V:4] D,2C,2B,,2A,,2 | 
[V:1] B3AG3F | 
[V:2] G4E4 | 
[V:3] d4e4- | 
[V:4] G,,2G,4G,2 | 
[V:1] E4E4 | 
[V:2] z8 | 
[V:3] e2d2c2B2 | 
[V:4] A,6G,2 | 
[V:1] A8 | 
[V:2] z4z2A2- | 
[V:3] A2G2F2E2- | 
[V:4] F,2E,2D,2C,2 | 
[V:1] B4c3A | 
[V:2] A2G2A2c2 | 
[V:3] E2D2E2A2 | 
[V:4] B,,4A,,4 | 
[V:1] B2c4BA | 
[V:2] d2e4d2 | 
[V:3] G2E2F4 | 
[V:4] z8 | 
[V:1] G8- | 
[V:2] e8- | 
[V:3] E8 | 
[V:4] z4E,4 | 
[V:1] G8 | 
[V:2] e8 | 
[V:3] z4B4 | 
[V:4] E,4E,4- | 
[V:1] z8 | 
[V:2] z8 | 
[V:3] B4B4- | 
[V:4] E,4D,2G,2- | 
[V:1] z8 | 
[V:2] z8 | 
[V:3] B4A2d2- | 
[V:4] G,2F,E,F,4 | 
[V:1] z8 | 
[V:2] z8 | 
[V:3] d2cBc4 | 
[V:4] E,4E,4 | 
[V:1] z8 | 
[V:2] z8 | 
[V:3] B4B4 | 
[V:4] D,2G,2G,2G,2 | 
[V:1] z8 | 
[V:2] z8 | 
[V:3] A2d2d2d2 | 
[V:4] F,2F,2G,3F, | 
[V:1] z8 | 
[V:2] z8 | 
[V:3] c2c2d3c | 
[V:4] E,D,E,2F,3E, | 
[V:1] z8 | 
[V:2] z8 | 
[V:3] BAA4^G2 | 
[V:4] D,2C,2B,,4 | 
[V:1] z8 | 
[V:2] z4e4 | 
[V:3] A8 | 
[V:4] A,,8 | 
[V:1] z4B4 | 
[V:2] e4e4- | 
[V:3] G8- | 
[V:4] E,8 | 
[V:1] B4B4- | 
[V:2] e4d2g2- | 
[V:3] G8 | 
[V:4] z8 | 
[V:1] B4A2d2- | 
[V:2] g2fef4 | 
[V:3] z8 | 
[V:4] z8 | 
[V:1] d2cBc4 | 
[V:2] e4e4 | 
[V:3] z8 | 
[V:4] z8 | 
[V:1] B4B4 | 
[V:2] d2g2g2g2 | 
[V:3] z8 | 
[V:4] z8 | 
[V:1] A2d2d2d2 | 
[V:2] f2f2g3f | 
[V:3] z8 | 
[V:4] z8 | 
[V:1] c2c2d3c | 
[V:2] ede2f3e | 
[V:3] z8 | 
[V:4] z8 | 
[V:1] BAA4^G2 | 
[V:2] d2c2B4 | 
[V:3] z8 | 
[V:4] z8 | 
[V:1] A8 | 
[V:2] A8 | 
[V:3] z4c4 | 
[V:4] F,4F,2F,2 | 
[V:1] z8 | 
[V:2] z8 | 
[V:3] c2c2B2G2 | 
[V:4] E,2C,2D,2E,2 | 
[V:1] z4c4 | 
[V:2] f4f2f2 | 
[V:3] A2B2c4- | 
[V:4] F,8 | 
[V:1] c2c2B2G2 | 
[V:2] e2c2d2e2 | 
[V:3] c4z4 | 
[V:4] z8 | 
[V:1] A2B2c4- | 
[V:2] f8 | 
[V:3] z4c4 | 
[V:4] F,4F,2F,2 | 
[V:1] c4z4 | 
[V:2] z8 | 
[V:3] c2c2G3A | 
[V:4] C,3D,E,F,G,2- | 
[V:1] z8 | 
[V:2] z8 | 
[V:3] Bcd4c2 | 
[V:4] G,2F,2G,2E,2 | 
[V:1] z4c4 | 
[V:2] f4f2f2 | 
[V:3] d2B2A4 | 
[V:4] D,4z4 | 
[V:1] c2c2G3A | 
[V:2] c3defg2- | 
[V:3] z8 | 
[V:4] z8 | 
[V:1] Bcd4c2 | 
[V:2] g2f2g2e2 | 
[V:3] z4z2A2 | 
[V:4] z8 | 
[V:1] d2B2A4 | 
[V:2] d8 | 
[V:3] B2G4F2 | 
[V:4] z4z2D,2 | 
[V:1] z2G2E2G2- | 
[V:2] z4z2d2 | 
[V:3] G8 | 
[V:4] E,2C,4B,,2 | 
[V:1] GFE2D4 | 
[V:2] e2c4B2 | 
[V:3] z4z2G2 | 
[V:4] C,4z4 | 
[V:1] C4z4 | 
[V:2] c4z4 | 
[V:3] A4B4- | 
[V:4] z2C,2D,4 | 
[V:1] z8 | 
[V:2] z8 | 
[V:3] B2G2G4 | 
[V:4] E,6C,2 | 
[V:1] z8 | 
[V:2] z8 | 
[V:3] c6A2 | 
[V:4] C,4F,4- | 
[V:1] z8 | 
[V:2] z8 | 
[V:3] A4d3c | 
[V:4] F,2D,2D,4 | 
[V:1] z8 | 
[V:2] z8 | 
[V:3] B2A2G2F2 | 
[V:4] G,3F,E,2D,2 | 
[V:1] G4A4 | 
[V:2] z4c4 | 
[V:3] E2D2A4 | 
[V:4] C,2B,,2A,,4 | 
[V:1] B6G2 | 
[V:2] d4e4- | 
[V:3] D4z4 | 
[V:4] G,,4z4 | 
[V:1] G4c4- | 
[V:2] e2c2c4 | 
[V:3] z8 | 
[V:4] z8 | 
[V:1] c2A2A4 | 
[V:2] f6d2 | 
[V:3] z8 | 
[V:4] z8 | 
[V:1] d3cB2A2 | 
[V:2] d4g3f | 
[V:3] z8 | 
[V:4] z8 | 
[V:1] G2F2EDG2- | 
[V:2] e2d2c2B2 | 
[V:3] z8 | 
[V:4] z8 | 
[V:1] G2^F2G4- | 
[V:2] A4G4- | 
[V:3] d4B4 | 
[V:4] D,4E,4 | 
[V:1] G2E2F4- | 
[V:2] G4z2D2 | 
[V:3] c4d4 | 
[V:4] E,4D,4 | 
[V:1] F4E4 | 
[V:2] D2D2G4 | 
[V:3] d4c3B | 
[V:4] z2B,,2C,4 | 
[V:1] z2c2A2A2 | 
[V:2] z2G2d2d2 | 
[V:3] AGG4^F2 | 
[V:4] C,4D,4 | 
[V:1] G2B2c4 | 
[V:2] d2g2e2f2 | 
[V:3] G4A4 | 
[V:4] G,,2G,4F,2 | 
[V:1] B2G2A2B2 | 
[V:2] d2e2f2g2 | 
[V:3] G4d3c | 
[V:4] G,2E,2D,2G,2- | 
[V:1] G2A2D2G2- | 
[V:2] e2f2d2c2 | 
[V:3] B2c2B2G2 | 
[V:4] G,2F,2G,2E,2 | 
[V:1] G2^F2G4- | 
[V:2] d4z2e2 | 
[V:3] A4z2c2 | 
[V:4] D,4C,4- | 
[V:1] G4z4 | 
[V:2] e2e2d4 | 
[V:3] c2c2B4 | 
[V:4] C,4z4 | 
[V:1] z2A2A2A2 | 
[V:2] c3Bc2d2- | 
[V:3] A8 | 
[V:4] z2F,2F,2F,2 | 
[V:1] G4F4- | 
[V:2] d2c2d3c | 
[V:3] z4z2A2 | 
[V:4] E,4D,4- | 
[V:1] F4z4 | 
[V:2] def4e2 | 
[V:3] A2A2G4 | 
[V:4] D,4z4 | 
[V:1] z2A2A2A2 | 
[V:2] f6ed | 
[V:3] A4z2c2- | 
[V:4] z2F,2F,2F,2 | 
[V:1] G4F4- | 
[V:2] e4d4- | 
[V:3] c2c2A4 | 
[V:4] C,4D,4- | 
[V:1] F8 | 
[V:2] d4z4 | 
[V:3] d6cB | 
[V:4] D,4z2F,2- | 
[V:1] z2F4D2 | 
[V:2] z8 | 
[V:3] A4A4 | 
[V:4] F,2F,2D,4 | 
[V:1] D4G4- | 
[V:2] z8 | 
[V:3] B4z2B2- | 
[V:4] G,6E,2 | 
[V:1] G2FED4 | 
[V:2] z8 | 
[V:3] B2B2B4 | 
[V:4] E,4z2G,2- | 
[V:1] D4E4 | 
[V:2] z2G4G2 | 
[V:3] B4c4 | 
[V:4] G,2G,2C,3D, | 
[V:1] z2E4E2 | 
[V:2] G2A4G2 | 
[V:3] B2c4B2- | 
[V:4] E,2A,,4E,2 | 
[V:1] E4E4 | 
[V:2] E4z2G2 | 
[V:3] B2A2B4 | 
[V:4] C,2A,,2E,4 | 
[V:1] F4E2F2- | 
[V:2] A2B2cBAG | 
[V:3] z8 | 
[V:4] z8 | 
[V:1] F2E4D2 | 
[V:2] A2G2F4 | 
[V:3] z8 | 
[V:4] z8 | 
[V:1] E8 | 
[V:2] E8- | 
[V:3] z2G4G2 | 
[V:4] z2C,4C,2 | 
[V:1] z2C4C2- | 
[V:2] E8 | 
[V:3] G4G4 | 
[V:4] C,4C,4 | 
[V:1] C2D2E2F2 | 
[V:2] z8 | 
[V:3] A4G2A2- | 
[V:4] F,4E,2D,2 | 
[V:1] G4A4 | 
[V:2] z2B2c4 | 
[V:3] A2G4^F2 | 
[V:4] C,2B,,2A,,4 | 
[V:1] D4G3F | 
[V:2] B2GABcd2- | 
[V:3] G8- | 
[V:4] G,,8- | 
[V:1] E3D/C/D4 | 
[V:2] d2c2c2B2 | 
[V:3] G8 | 
[V:4] G,,8 | 
[V:1] E2G4G2 | 
[V:2] c3B/A/B4 | 
[V:3] z2E4E2 | 
[V:4] z4z2G,2- | 
[V:1] G4G4 | 
[V:2] z2e4e2 | 
[V:3] E4E4 | 
[V:4] G,F,E,D,C,3B,, | 
[V:1] A3Bc2A2 | 
[V:2] c2d2e3d/c/ | 
[V:3] F4E2F2- | 
[V:4] A,,2D,2C,2D,2- | 
[V:1] B2c2d4 | 
[V:2] B2A4^G2 | 
[V:3] F2E4D2 | 
[V:4] D,2C,2B,,4 | 
[V:1] c8 ||  
[V:2] A8 ||  
[V:3] E8 ||  
[V:4] A,,8 ||  
[V:1] [M:2/1]c8- | 
[V:2] [M:2/1]e8- | 
[V:3] [M:2/1]A8 | 
[V:4] [M:2/1]A,,8- | 
[V:1] c4c4 | 
[V:2] e4e4 | 
[V:3] A4A4 | 
[V:4] A,,4A,,4 | 
[V:1] c8 | 
[V:2] e8 | 
[V:3] A4E2A2- | 
[V:4] A,,4C,4- | 
[V:1] c4c4 | 
[V:2] e4e4 | 
[V:3] A2GFG4 | 
[V:4] C,4C,4 | 
[V:1] A8 | 
[V:2] d8 | 
[V:3] F4z2F2 | 
[V:4] D,8 | 
[V:1] A8 | 
[V:2] d4z2d2 | 
[V:3] F4F4 | 
[V:4] D,8 | 
[V:1] z4B4 | 
[V:2] d4d2e2- | 
[V:3] G8 | 
[V:4] z4G,,4 | 
[V:1] B4B4 | 
[V:2] e2dcd2e2- | 
[V:3] z4G4 | 
[V:4] G,,4G,,4 | 
[V:1] c8 | 
[V:2] edcBA4 | 
[V:3] E2F4ED | 
[V:4] A,,4A,,4 | 
[V:1] z4c4 | 
[V:2] G4c4- | 
[V:3] E4A4- | 
[V:4] C,6B,,2 | 
[V:1] c6A2 | 
[V:2] c2d2e2f2 | 
[V:3] A2B2c4 | 
[V:4] A,,4A,,4 | 
[V:1] d6c2 | 
[V:2] g4d2g2- | 
[V:3] B8 | 
[V:4] G,,8 | 
[V:1] B2A2G2F2 | 
[V:2] g2f2e2d2 | 
[V:3] z8 | 
[V:4] z8 | 
[V:1] E2D4C2 | 
[V:2] c2B2A4 | 
[V:3] z8 | 
[V:4] z8 | 
[V:1] D8- | 
[V:2] G8 | 
[V:3] z4B4 | 
[V:4] z4G,,4 | 
[V:1] D8 | 
[V:2] z4G4 | 
[V:3] B4B4 | 
[V:4] (3:2:2G,,8G,,4 | 
[V:1] z4E4 | 
[V:2] G2G2G2G2 | 
[V:3] c8 | 
[V:4] (3:2:2C,8C,4 | 
[V:1] E4E4 | 
[V:2] A6G2 | 
[V:3] c8 | 
[V:4] A,,4A,,4 | 
[V:1] F8 | 
[V:2] F2E2D4 | 
[V:3] A4A4 | 
[V:4] z4D,4 | 
[V:1] F8 | 
[V:2] z4d4 | 
[V:3] d6c2 | 
[V:4] (3:2:2D,8D,4 | 
[V:1] D4D4 | 
[V:2] d2d2d2d2 | 
[V:3] B2A2G4 | 
[V:4] (3:2:2G,8G,4 | 
[V:1] G6F2 | 
[V:2] e6d2 | 
[V:3] z8 | 
[V:4] E,4E,4 | 
[V:1] E2D2C4 | 
[V:2] c2B2A4 | 
[V:3] z4A4 | 
[V:4] A,6G,2 | 
[V:1] z8 | 
[V:2] z4d4 | 
[V:3] A4A4 | 
[V:4] F,2E,2D,4 | 
[V:1] z4D4 | 
[V:2] f6e2 | 
[V:3] d6c2 | 
[V:4] z8 | 
[V:1] D4D4 | 
[V:2] d2c2B2A2 | 
[V:3] B2A2G2F2 | 
[V:4] z4G,4 | 
[V:1] G6F2 | 
[V:2] G2g2g4- | 
[V:3] E3DC4- | 
[V:4] G,4G,4 | 
[V:1] E2D2E4 | 
[V:2] g2f2e2d2 | 
[V:3] C8 | 
[V:4] C6B,2 | 
[V:1] A4A4 | 
[V:2] c2B2A2G2 | 
[V:3] c8 | 
[V:4] A,2G,2F,2E,2 | 
[V:1] A4d4- | 
[V:2] F2E2D4 | 
[V:3] d6c2 | 
[V:4] D,2C,2B,,2A,,2 | 
[V:1] d2c2B2A2 | 
[V:2] G8- | 
[V:3] B2A2G2F2 | 
[V:4] G,,8 | 
[V:1] G2F2E2D2 | 
[V:2] G4z2G2 | 
[V:3] E2D2C4 | 
[V:4] B,4C3B, | 
[V:1] C2B,2A,4 | 
[V:2] A6G2 | 
[V:3] c8 | 
[V:4] A,2G,2F,2E,2 | 
[V:1] A4B4 | 
[V:2] F2E2DEFG | 
[V:3] d6d2 | 
[V:4] D,2C,2B,,4 | 
[V:1] c6B2- | 
[V:2] ABcdefg2 | 
[V:3] c3Bc2d2 | 
[V:4] A,,2A,4G,2 | 
[V:1] BAA4^G2 | 
[V:2] c2d2e4- | 
[V:3] A4B4 | 
[V:4] F,4E,4 | 
[V:1] A8- | 
[V:2] e2c2c4 | 
[V:3] A8 | 
[V:4] z4F,4 | 
[V:1] A4z2G2 | 
[V:2] f4e4- | 
[V:3] z2c2c4 | 
[V:4] F,4C,3D, | 
[V:1] G4D3E | 
[V:2] e4z4 | 
[V:3] G3AB3c | 
[V:4] E,3F,G,3F, | 
[V:1] F3GA3G | 
[V:2] z2f2f2f2 | 
[V:3] d3cA3B | 
[V:4] D,3E,F,4 | 
[V:1] E3FG4 | 
[V:2] e4e2e2 | 
[V:3] c4z2G2 | 
[V:4] z2C,2C,2C,2 | 
[V:1] z2G2A2A2 | 
[V:2] d2B2c2AB | 
[V:3] G2G2F4 | 
[V:4] B,,4A,,4 | 
[V:1] G4E4 | 
[V:2] cde2z2e2 | 
[V:3] E4z2G2 | 
[V:4] z2C,2C,2C,2 | 
[V:1] z2G2A2A2 | 
[V:2] d2B2c2AB | 
[V:3] G2G2F4 | 
[V:4] B,,4A,,4 | 
[V:1] G4F4 | 
[V:2] cde4d2 | 
[V:3] E4z4 | 
[V:4] z8 | 
[V:1] E4z4 | 
[V:2] e8 | 
[V:3] z2c2c3B | 
[V:4] z2A,2A,3G, | 
[V:1] z8 | 
[V:2] z8 | 
[V:3] c2B2c2A2 | 
[V:4] A,2G,2E,2F,2 | 
[V:1] z8 | 
[V:2] z8 | 
[V:3] B2c4BA | 
[V:4] G,2E,2F,4 | 
[V:1] z2G2G3G | 
[V:2] z2e2e3d | 
[V:3] c4B4 | 
[V:4] E,8 | 
[V:1] G2F2G2E2 | 
[V:2] e2d2B2c2 | 
[V:3] z8 | 
[V:4] z8 | 
[V:1] F2G4FE | 
[V:2] d2B2c4 | 
[V:3] z8 | 
[V:4] z8 | 
[V:1] D2C2c4 | 
[V:2] B2e2e4 | 
[V:3] z2c2c3B | 
[V:4] z2A,2A,3G, | 
[V:1] A2B2G2A2 | 
[V:2] f2g4f2 | 
[V:3] c2B2c2A2 | 
[V:4] A,2G,2E,2F,2 | 
[V:1] G2G2A2A2 | 
[V:2] d2e4d2 | 
[V:3] B2c4BA | 
[V:4] G,2E,2F,4 | 
[V:1] G8 | 
[V:2] e4z2e2 | 
[V:3] B4c4 | 
[V:4] E,8- | 
[V:1] z2G2G4- | 
[V:2] e6dc | 
[V:3] B8 | 
[V:4] E,8 | 
[V:1] G2FEF2D2- | 
[V:2] B2c2d3c | 
[V:3] z8 | 
[V:4] z8 | 
[V:1] D2G4^F2 | 
[V:2] BAG2A4 | 
[V:3] z8 | 
[V:4] z8 | 
[V:1] G8 | 
[V:2] G8 | 
[V:3] z2c2c4- | 
[V:4] z2C,2C,3D, | 
[V:1] z4z2D2 | 
[V:2] z8 | 
[V:3] c2BAB2G2- | 
[V:4] E,2F,2G,3F, | 
[V:1] E4F4 | 
[V:2] z4z2d2 | 
[V:3] G2c4B2 | 
[V:4] E,D,C,2D,4 | 
[V:1] E2G3FGE | 
[V:2] e3dc3B | 
[V:3] c8 | 
[V:4] C,8 | 
[V:1] F2E4D2 | 
[V:2] A2G2F4 | 
[V:3] z8 | 
[V:4] z8 | 
[V:1] E8- | 
[V:2] E8- | 
[V:3] z2G2A4 | 
[V:4] z2C,4A,,2- | 
[V:1] E8 | 
[V:2] E8 | 
[V:3] B4A2c2- | 
[V:4] A,,2G,,2A,,4 | 
[V:1] z8 | 
[V:2] z8 | 
[V:3] cBcAB2A2- | 
[V:4] E,4D,2C,2 | 
[V:1] z4c4- | 
[V:2] z4e4- | 
[V:3] A2^G2A4 | 
[V:4] B,,4A,,4 | 
[V:1] c2c2c4 | 
[V:2] e2e2e4 | 
[V:3] A4z4 | 
[V:4] A,6A,2 | 
[V:1] c4B4 | 
[V:2] c4g4- | 
[V:3] e6e2 | 
[V:4] A,4G,4 | 
[V:1] z2B4B2 | 
[V:2] g8 | 
[V:3] e4d4 | 
[V:4] E,4z2G,2- | 
[V:1] B4B4 | 
[V:2] z2d4d2 | 
[V:3] B4z2d2- | 
[V:4] G,2G,2G,4 | 
[V:1] A4z2A2- | 
[V:2] f4f4 | 
[V:3] d2d2d4 | 
[V:4] F,4D,4 | 
[V:1] A2A2A4 | 
[V:2] f4z2c2- | 
[V:3] c4A4 | 
[V:4] z2F,4F,2 | 
[V:1] A4G4 | 
[V:2] c2c2e4 | 
[V:3] z2c4c2 | 
[V:4] F,4E,4 | 
[V:1] z2G4G2 | 
[V:2] e4d3c | 
[V:3] c4B4 | 
[V:4] C,4z2G,2- | 
[V:1] G4A4 | 
[V:2] d2e2c2f2 | 
[V:3] G4z2d2- | 
[V:4] G,2E,2F,4 | 
[V:1] G4z2A2- | 
[V:2] d2e4A2 | 
[V:3] d2B2c4 | 
[V:4] G,4C,2F,2- | 
[V:1] A2F2G4 | 
[V:2] f4e4 | 
[V:3] d4G2c2- | 
[V:4] F,2D,2E,4 | 
[V:1] A4D4 | 
[V:2] c4z2g2 | 
[V:3] c2A2B4 | 
[V:4] F,4G,4 | 
[V:1] E3DEFG2 | 
[V:2] g3fede2 | 
[V:3] c6B2 | 
[V:4] C,8 | 
[V:1] F2E4D2 | 
[V:2] A6B2 | 
[V:3] A2G2F4 | 
[V:4] D,8 | 
[V:1] E8- | 
[V:2] c4z2c2- | 
[V:3] E8- | 
[V:4] z2A,,4A,,2 | 
[V:1] E8- | 
[V:2] c2c2c2c2 | 
[V:3] E8- | 
[V:4] A,,4A,,4 | 
[V:1] E8 |]  
[V:2] B8 |]  
[V:3] E8 |]  
[V:4] E,8 |]  



